img/tooth.svg

<svg height="500" viewBox="0 0 499 500" width="499" xmlns="http://www.w3.org/2000/svg"><path d="m748.860048 499.997608c0 137.735646-111.65311 249.394736-249.392345 249.394736-137.735646 0-249.392344-111.65909-249.392344-249.394736s111.655502-249.392345 249.392344-249.392345c137.739235 0 249.392345 111.656699 249.392345 249.392345zm-328.990431-154.828948c-12.776316 12.772728-15.18421 27.287082-12.950957 45.389952 4.149522 33.60646 22.093302 63.802632 23.632775 98.056221.54067 12.078947-.162679 24.210526-2.30622 36.113636-6.302631 35.01555-3.007177 72.413875 11.289474 105.217703 6.332536 14.528708 14.971292 40.45933 35.407895 37.83134 8.277512-1.058612 13.888756-6.885168 15.355263-14.961723 1.595694-8.815789-2.703349-15.093301-4.437799-23.320574-3.866029-18.305024-5.442584-37.843301-4.008373-56.502392 1.070574-13.927034 1.869617-43.970096 11.590909-55.106459 17.827751-20.418661 50.312201 72.035885 53.367225 80.929425 2.223684 6.482058 4.01555 13.295455 4.690191 20.132776 1.299043 13.307416 3.631579 24.09689 16.434211 30.488038 8.779904 4.37799 18.91866-4.991627 21.913875-12.069378 3.205742-7.564593 3.228469-15.677034 2.55622-23.698565-1.833732-22.202153-4.090909-44.150717-8.642344-65.998804-2.074163-9.952153-4.016747-19.95933-6.934211-29.715311-4.455741-14.913875-13.867225-27.748803-15.106459-43.472488-1.38756-17.667464 5.772727-35.818181 13.326555-51.72488 7.986842-16.82177 8.407895-43.811005-.889952-59.893541-9.19378-15.909091-34.397129-32.61244-53.423445-23.239234 0 0-14.410287 4.988038-21.192584 24.38756.966507-3.34689-15.427033-19.263158-17.793062-20.866029-6.221292-4.206938-13.217704-8.088517-20.575359-9.84689-15.295455-3.663876-30.166268.732057-41.303828 11.869617z" fill-rule="evenodd" transform="translate(-250 -250)"/></svg>

<?xml version="1.0" encoding="UTF-8" standalone="no"?>
<svg width="499px" height="500px" viewBox="0 0 499 500" version="1.1" xmlns="http://www.w3.org/2000/svg" xmlns:xlink="http://www.w3.org/1999/xlink" xmlns:sketch="http://www.bohemiancoding.com/sketch/ns">
    <!-- Generator: Sketch 3.5.1 (25234) - http://www.bohemiancoding.com/sketch -->
    <title>Tooth &amp; Circle</title>
    <desc>Created with Sketch.</desc>
    <defs></defs>
    <g id="Page-1" stroke="none" stroke-width="1" fill="none" fill-rule="evenodd" sketch:type="MSPage">
        <g id="Safari-Pinned-Tabs" sketch:type="MSArtboardGroup" transform="translate(-250.000000, -250.000000)" fill="#000000">
            <path d="M748.860048,499.997608 C748.860048,637.733254 637.206938,749.392344 499.467703,749.392344 C361.732057,749.392344 250.075359,637.733254 250.075359,499.997608 C250.075359,362.261962 361.730861,250.605263 499.467703,250.605263 C637.206938,250.605263 748.860048,362.261962 748.860048,499.997608 Z M419.869617,345.16866 C407.093301,357.941388 404.685407,372.455742 406.91866,390.558612 C411.068182,424.165072 429.011962,454.361244 430.551435,488.614833 C431.092105,500.69378 430.388756,512.825359 428.245215,524.728469 C421.942584,559.744019 425.238038,597.142344 439.534689,629.946172 C445.867225,644.47488 454.505981,670.405502 474.942584,667.777512 C483.220096,666.7189 488.83134,660.892344 490.297847,652.815789 C491.893541,644 487.594498,637.722488 485.860048,629.495215 C481.994019,611.190191 480.417464,591.651914 481.851675,572.992823 C482.922249,559.065789 483.721292,529.022727 493.442584,517.886364 C511.270335,497.467703 543.754785,589.922249 546.809809,598.815789 C549.033493,605.297847 550.825359,612.111244 551.5,618.948565 C552.799043,632.255981 555.131579,643.045455 567.934211,649.436603 C576.714115,653.814593 586.852871,644.444976 589.848086,637.367225 C593.053828,629.802632 593.076555,621.690191 592.404306,613.66866 C590.570574,591.466507 588.313397,569.517943 583.761962,547.669856 C581.687799,537.717703 579.745215,527.710526 576.827751,517.954545 C572.37201,503.04067 562.960526,490.205742 561.721292,474.482057 C560.333732,456.814593 567.494019,438.663876 575.047847,422.757177 C583.034689,405.935407 583.455742,378.946172 574.157895,362.863636 C564.964115,346.954545 539.760766,330.251196 520.73445,339.624402 C520.73445,339.624402 506.324163,344.61244 499.541866,364.011962 C500.508373,360.665072 484.114833,344.748804 481.748804,343.145933 C475.527512,338.938995 468.5311,335.057416 461.173445,333.299043 C445.87799,329.635167 431.007177,334.0311 419.869617,345.16866 Z" id="Tooth-&amp;-Circle" sketch:type="MSShapeGroup"></path>
        </g>
    </g>
</svg>
